**kern	**kern	**dynam
*part1	*part1	*part1
*staff2	*staff1	*
*I"Piano	*	*
*clefG2	*clefG2	*
*k[f#c#]	*k[f#c#]	*
=1	=1	=1
8.f#L	8.ff#L	.
16dK	16ddK	.
8d	8dd	.
8eJ	8eeJ	.
=	=	=
4G 4d	(8gL 8b 8ff#	.
.	8ddJ)	.
4r	8r	.
.	8b	.
*clefF4	*	*
=	=	=
4E 4B-X	(8dL 8g 8dd	.
.	8b-XJ)	.
8r	8r	.
8AA	8G 8c#	pp
=	=	=
8DD 8AA	8F# 8d	.
8r	8r	.
4r	4r	.
=	=	=
4r	4r	.
*clefG2	*	*
4d 4a	[4dd [4ff# [4ddd	.
*clefF4	*	*
=	=	=
[2DDD [2DD	2dd_ 2ff#_ 2ddd_	.
=	=	=
4DDD] 4DD]	4dd] 4ff#] 4ddd]	.
8r	8r	.
8ryy	8ryy	.
==	==	==
*-	*-	*-
!!!system-decoration: {(s1,s2)}
